src/search/components/img/searchwhite.svg

<svg height="18" viewBox="0 0 18 18" width="18" xmlns="http://www.w3.org/2000/svg"><path d="m17.7245713 16.3962758-4.3471145-4.3473023c2.2731324-2.92901358 2.0674063-7.17204384-.6211238-9.86019815-1.4115252-1.41152525-3.2880478-2.18877535-5.28387274-2.18877535-1.99601282 0-3.87234753.7772501-5.28368491 2.18877535-1.41152525 1.41133738-2.18877535 3.28785997-2.18877535 5.28387279 0 1.99601281.77743797 3.87253536 2.18858747 5.28406066 1.41152526 1.4113374 3.28785997 2.1885875 5.28387279 2.1885875 1.67925099 0 3.27264184-.5519847 4.57707684-1.567088l4.3467387 4.3467387c.1833687.1833687.4238522.275053.6641478.275053s.4809669-.0916843.6641477-.275053c.367113-.367113.367113-.9619339 0-1.3286712zm-14.20750052-4.9684261c-1.05662426-1.0566242-1.63848153-2.46138587-1.63848153-3.95538944 0-1.49419145.58185727-2.89876523 1.63866941-3.95538948 1.05643637-1.05662426 2.46101015-1.63848153 3.9552016-1.63848153 1.49400357 0 2.89895314.58185727 3.95557734 1.63848153 2.1808845 2.18088448 2.1808845 5.72951872 0 7.91059112-1.0566242 1.0566242-2.46157377 1.6384815-3.95557734 1.6384815-1.49419145.0001879-2.89876523-.5816694-3.95538948-1.6382937z" fill="#fff"/></svg>

<?xml version="1.0" encoding="UTF-8"?>
<svg width="18px" height="18px" viewBox="0 0 18 18" version="1.1" xmlns="http://www.w3.org/2000/svg" xmlns:xlink="http://www.w3.org/1999/xlink">
    <!-- Generator: Sketch 48.2 (47327) - http://www.bohemiancoding.com/sketch -->
    <title>Search</title>
    <desc>Created with Sketch.</desc>
    <defs></defs>
    <g id="Order-History--Copy" stroke="none" stroke-width="1" fill="none" fill-rule="evenodd" transform="translate(-326.000000, -38.000000)">
        <g id="Top-Bar-Brand" fill="#FFFFFF" fill-rule="nonzero">
            <g id="Search" transform="translate(326.000000, 38.000000)">
                <path d="M17.7245713,16.3962758 L13.3774568,12.0489735 C15.6505892,9.11995992 15.4448631,4.87692966 12.756333,2.18877535 C11.3448078,0.777250097 9.4682852,0 7.47246026,0 C5.47644744,0 3.60011273,0.777250097 2.18877535,2.18877535 C0.777250097,3.60011273 0,5.47663532 0,7.47264814 C0,9.46866095 0.777437974,11.3451835 2.18858747,12.7567088 C3.60011273,14.1680462 5.47644744,14.9452963 7.47246026,14.9452963 C9.15171125,14.9452963 10.7451021,14.3933116 12.0495371,13.3782083 L16.3962758,17.724947 C16.5796445,17.9083157 16.820128,18 17.0604236,18 C17.3007192,18 17.5413905,17.9083157 17.7245713,17.724947 C18.0916843,17.357834 18.0916843,16.7630131 17.7245713,16.3962758 Z M3.51707078,11.4278497 C2.46044652,10.3712255 1.87858925,8.96646383 1.87858925,7.47246026 C1.87858925,5.97826881 2.46044652,4.57369503 3.51725866,3.51707078 C4.57369503,2.46044652 5.97826881,1.87858925 7.47246026,1.87858925 C8.96646383,1.87858925 10.3714134,2.46044652 11.4280376,3.51707078 C13.6089221,5.69795526 13.6089221,9.2465895 11.4280376,11.4276619 C10.3714134,12.4842861 8.96646383,13.0661434 7.47246026,13.0661434 C5.97826881,13.0663313 4.57369503,12.484474 3.51707078,11.4278497 Z" id="Shape"></path>
            </g>
        </g>
    </g>
</svg>
